X: 1
T: Will's Way
C: Will Ward
R: Reel
L: 1/8
M: 4/4
K: Dmix
Z: ABC transcription by Verge Roller
|: "D" DEFG A2 A2 | "G" BA B2 "D" A4 | "D" DEFG A2 B2 | "C" c2 B2 "D" B2 A2 |
"D" DEFG A2 A2 | "G" BA B2 "D" A4 | "D" DEFG "A" F2 E2 | "D" D4 D4 :|
|: "D" d2 A2 AG F2 | "D" d2 A2 AG F2 | "D" DEFG A2 B2 | "C" c2 B2 "D" B2 A2 |
"D" d2 A2 AG F2 | "D" d2 A2 AG F2 | "D" DEFG "A" F2 E2 | "D" D4 D4 :|
r: 32
